X:705
T:Phil's Jig
M:6/8
L:1/8
K:DMix
ADD BAG|ADD DEG|ADD BcA|GEC EFG|\
ADD BAG|ADD DEG|Acc c/d/BA|GEC EFG :|
D2 d dAd|dAd dAF|D2 d dAB|c2 A GEC|\
D2 d dAd|Add dAB|c3 cBA|GEC EFG :|
